X:1
T:Lake Mead, 87.87 D
T:William James Kirkpatrick, 1902
T:Lake Mead, 87.87 D
T:Public Domain
C:William James Kirkpatrick, 1902
Z:Public Domain
%%score ( 1 2 ) ( 3 4 )
L:1/8
M:4/4
K:F
V:1 treble 
V:2 treble 
V:3 bass 
V:4 bass 
V:1
 (CF)[CG] | [FA]3- [FA]2 [FA] (BA)[F^G] | [FA]3 [CF]3 (CF)[FA] | [Ec]3- [Ec]2 [Ec] (dc)[EB] | %4
 [FA]6 (CF)[CG] | [FA]3- [FA]2 [FA] (BA)[F^G] | [FA]3 [CF]3 (FG)[FA] | %7
 [EG]3- [EG]2 [Ec] (c=B)[Fd] | [Ec]6 c[=Bd][_Be] | [Af]3- [Af]2 [Ac] ([Ac][GB])[FA] | %10
 [^Gd]3 [Ac]3 ([Ac][=GB])[FA] | [Gc]3- [Gc]2 [GB] ([GB][FA])[EG] | [FA]6 c[=Bd][_Be] | %13
 [Af]3- [Af]2 [Ac] ([Ac][GB])[FA] | [Fd]3 [_Af]3 F2 [FG] | [FA]3- [FA]2 [Fc] (BA)[EG] | [CF]6 |] %17
V:2
 C2 x | x6 F2 x | x6 C2 x | x6 E2 x | x6 C2 x | x6 F2 x | x6 F2 x | x6 F2 x | x6 c x2 | x9 | x9 | %11
 x9 | x6 c x2 | x9 | x6 F2 x | x6 E2 x | x6 |] %17
V:3
[K:C] [F,A,]2 [F,B,] | [F,C]3- [F,C]2 [F,C](DC)[F,B,] | [F,C]3 [F,A,]3 [F,A,]2 [F,A,] | %3
 [C,G,]3- [C,G,]2 [C,G,] [C,G,]2 [C,C] | [F,C]6 [F,A,]2 [F,B,] | [F,C]3- [F,C]2 [F,C](DC)[F,B,] | %6
 [F,C]3 [F,A,]3 (A,B,)[F,C] | [G,C]3- [G,C]2 [G,C] [G,D]2 G, | [C,G,]6 z3 | %9
 [F,C]2 [F,C] [F,C]2 [F,F] [F,F]2 [F,C] | [F,B,]3 [F,C]3 z3 | %11
 [C,E]2 [C,E] [C,E]2 [C,C] [C,C]2 [C,C] | [F,C]6 z3 | [F,C]2 [F,C] [F,C]2 [F,F] [F,F]2 [F,C] | %14
 [B,,B,]3 [B,,D]3 A,2 B, | (C,2 C, [C,C]2) [C,A,] [C,G,]2 [C,B,] | [F,A,]6 |] %17
V:4
[K:C] x3 | x6 F,2 x | x9 | x9 | x9 | x6 F,2 x | x6 F,2 x | x8 G, | x9 | x9 | x9 | x9 | x9 | x9 | %14
 x9 | C3- x6 | x6 |] %17

